images/sfi.svg

<svg height="250" viewBox="0 0 250 250" width="250" xmlns="http://www.w3.org/2000/svg"><path d="m192.308594 0h-134.617188c-31.863281 0-57.691406 25.828125-57.691406 57.691406v134.617188c0 31.863281 25.828125 57.691406 57.691406 57.691406h134.617188c31.863281 0 57.691406-25.828125 57.691406-57.691406v-134.617188c0-31.863281-25.828125-57.691406-57.691406-57.691406zm0 0" fill="#c44536"/><path d="m114.839844 172.550781c.226562-48.601562.226562-48.601562-2.332032-49.007812-10.714843-1.703125-17.550781-4.261719-25.152343-9.417969-10.207031-6.925781-16.546875-16.375-19.09375-28.46875-1.75-8.304688-1.136719-15.503906 2.210937-26.023438 3.433594-10.785156 3.535156-14.445312.570313-20.421874l-2.261719-4.558594 9.085938-3.265625c10.320312-3.710938 10.144531-3.746094 12.820312 2.523437 2.640625 6.191406 2.371094 15.5-.742188 25.460938-3.128906 10.003906-3.796874 14.726562-2.960937 20.960937 1.625 12.089844 9.136719 19.902344 22.414063 23.300781 7.171874 1.839844 25.226562 1.820313 31.601562-.03125 6.429688-1.867187 12.632812-5.472656 15.808594-9.179687 7.085937-8.285156 8.363281-18.957031 3.992187-33.34375-3.972656-13.066406-3.757812-24.292969.578125-30.359375 1.292969-1.8125 1.292969-1.8125 8.539063.234375 13.179687 3.726563 12.242187 2.988281 9.566406 7.535156-3.109375 5.289063-3.015625 9.589844.488281 22.082031 4.003906 14.261719 3.636719 23.078126-1.433594 34.765626-3.535156 8.144531-11.90625 16.800781-20.238281 20.921874-6.523437 3.230469-17.714843 6.921876-20.972656 6.921876-3.792969 0-4.175781.484374-3.554687 4.46875.3125 1.996093.585937 23.851562.609374 48.570312l.042969 44.933594h-19.8125zm-46.167969 23.917969v-9.257812h35.800781v18.515624h-35.800781zm75.984375 0v-9.257812h35.796875v18.515624h-35.796875zm-75.984375-30.089844v-9.253906h35.800781v18.511719h-35.800781zm75.984375 0v-9.253906h35.796875v18.511719h-35.796875zm-75.984375-30.085937v-9.253907h35.800781v18.511719h-35.800781zm75.984375 0v-9.253907h35.796875v18.511719h-35.796875zm-12.324219-42.621094c-2.070312-4.347656-4.851562-11.136719-6.183593-15.082031l-2.421876-7.171875-1.246093 4.859375c-1.488281 5.820312-9.921875 24.550781-11.023438 24.484375-.425781-.023438-4.300781-1.847657-8.605469-4.050781l-7.832031-4.003907 10.386719-20.617187 10.390625-20.617188 8.066406-.019531 8.070313-.019531 10.429687 20.519531c5.738281 11.285156 10.324219 20.613281 10.195313 20.730469-.53125.492187-15.730469 8.894531-16.082032 8.894531-.210937 0-2.074218-3.558594-4.144531-7.90625zm0 0" fill="#fff"/></svg>

<svg xmlns="http://www.w3.org/2000/svg" xmlns:xlink="http://www.w3.org/1999/xlink" width="250px" height="250px" viewBox="0 0 250 250" version="1.1">
<g id="surface1">
<path style=" stroke:none;fill-rule:nonzero;fill:rgb(76.862746%,27.058825%,21.176471%);fill-opacity:1;" d="M 192.308594 0 L 57.691406 0 C 25.828125 0 0 25.828125 0 57.691406 L 0 192.308594 C 0 224.171875 25.828125 250 57.691406 250 L 192.308594 250 C 224.171875 250 250 224.171875 250 192.308594 L 250 57.691406 C 250 25.828125 224.171875 0 192.308594 0 Z M 192.308594 0 "/>
<path style=" stroke:none;fill-rule:nonzero;fill:rgb(100%,100%,100%);fill-opacity:1;" d="M 114.839844 172.550781 C 115.066406 123.949219 115.066406 123.949219 112.507812 123.542969 C 101.792969 121.839844 94.957031 119.28125 87.355469 114.125 C 77.148438 107.199219 70.808594 97.75 68.261719 85.65625 C 66.511719 77.351562 67.125 70.152344 70.472656 59.632812 C 73.90625 48.847656 74.007812 45.1875 71.042969 39.210938 L 68.78125 34.652344 L 77.867188 31.386719 C 88.1875 27.675781 88.011719 27.640625 90.6875 33.910156 C 93.328125 40.101562 93.058594 49.410156 89.945312 59.371094 C 86.816406 69.375 86.148438 74.097656 86.984375 80.332031 C 88.609375 92.421875 96.121094 100.234375 109.398438 103.632812 C 116.570312 105.472656 134.625 105.453125 141 103.601562 C 147.429688 101.734375 153.632812 98.128906 156.808594 94.421875 C 163.894531 86.136719 165.171875 75.464844 160.800781 61.078125 C 156.828125 48.011719 157.042969 36.785156 161.378906 30.71875 C 162.671875 28.90625 162.671875 28.90625 169.917969 30.953125 C 183.097656 34.679688 182.160156 33.941406 179.484375 38.488281 C 176.375 43.777344 176.46875 48.078125 179.972656 60.570312 C 183.976562 74.832031 183.609375 83.648438 178.539062 95.335938 C 175.003906 103.480469 166.632812 112.136719 158.300781 116.257812 C 151.777344 119.488281 140.585938 123.179688 137.328125 123.179688 C 133.535156 123.179688 133.152344 123.664062 133.773438 127.648438 C 134.085938 129.644531 134.359375 151.5 134.382812 176.21875 L 134.425781 221.152344 L 114.613281 221.152344 Z M 68.671875 196.46875 L 68.671875 187.210938 L 104.472656 187.210938 L 104.472656 205.726562 L 68.671875 205.726562 Z M 144.65625 196.46875 L 144.65625 187.210938 L 180.453125 187.210938 L 180.453125 205.726562 L 144.65625 205.726562 Z M 68.671875 166.378906 L 68.671875 157.125 L 104.472656 157.125 L 104.472656 175.636719 L 68.671875 175.636719 Z M 144.65625 166.378906 L 144.65625 157.125 L 180.453125 157.125 L 180.453125 175.636719 L 144.65625 175.636719 Z M 68.671875 136.292969 L 68.671875 127.039062 L 104.472656 127.039062 L 104.472656 145.550781 L 68.671875 145.550781 Z M 144.65625 136.292969 L 144.65625 127.039062 L 180.453125 127.039062 L 180.453125 145.550781 L 144.65625 145.550781 Z M 132.332031 93.671875 C 130.261719 89.324219 127.480469 82.535156 126.148438 78.589844 L 123.726562 71.417969 L 122.480469 76.277344 C 120.992188 82.097656 112.558594 100.828125 111.457031 100.761719 C 111.03125 100.738281 107.15625 98.914062 102.851562 96.710938 L 95.019531 92.707031 L 105.40625 72.089844 L 115.796875 51.472656 L 123.863281 51.453125 L 131.933594 51.433594 L 142.363281 71.953125 C 148.101562 83.238281 152.6875 92.566406 152.558594 92.683594 C 152.027344 93.175781 136.828125 101.578125 136.476562 101.578125 C 136.265625 101.578125 134.402344 98.019531 132.332031 93.671875 Z M 132.332031 93.671875 "/>
</g>
</svg>
